assets/icons/help.svg

<svg width="20" height="20" viewBox="0 0 20 20" fill="none" xmlns="http://www.w3.org/2000/svg">
<path d="M10 1.25C5.16667 1.25 1.25 5.16667 1.25 10C1.25 14.8333 5.16667 18.75 10 18.75C14.8333 18.75 18.75 14.8333 18.75 10C18.75 5.16667 14.8333 1.25 10 1.25ZM10 17.5C5.91667 17.5 2.5 14.1667 2.5 10C2.5 5.83333 5.83333 2.5 10 2.5C14.1667 2.5 17.5 5.83333 17.5 10C17.5 14.1667 14.0833 17.5 10 17.5Z" fill="#333333"/>
<path d="M9.75 12.5837C8.91667 12.5837 8.75 12.7503 8.75 13.5837C8.75 14.417 8.91667 14.5837 9.75 14.5837C10.5 14.5837 10.75 14.417 10.75 13.5837C10.75 12.667 10.5 12.5837 9.75 12.5837ZM9.66667 5.41699C9 5.41699 8.33333 5.50033 7.75 5.66699V7.08366C8.25 6.91699 8.83333 6.83366 9.41667 6.83366C10.5 6.83366 10.8333 7.00033 10.8333 7.91699C10.8333 8.58366 10.6667 8.75033 10.0833 9.25033C9.25 9.91699 9 10.3337 9 11.0837V11.667H10.4167V11.3337C10.4167 10.8337 10.5833 10.5837 11.3333 10.0003C12.1667 9.50033 12.5 8.75033 12.5833 7.66699C12.5833 5.91699 11.6667 5.41699 9.66667 5.41699Z" fill="#333333"/>
</svg>

<svg xmlns="http://www.w3.org/2000/svg" width="20" height="20" fill="none" data-c="1"><path fill="#333" d="M10 1.25A8.75 8.75 0 0 0 1.25 10 8.75 8.75 0 0 0 10 18.75 8.75 8.75 0 0 0 18.75 10 8.75 8.75 0 0 0 10 1.25m0 16.25c-4.083 0-7.5-3.333-7.5-7.5S5.833 2.5 10 2.5s7.5 3.333 7.5 7.5-3.417 7.5-7.5 7.5"/><path fill="#333" d="M9.75 12.584c-.833 0-1 .166-1 1 0 .833.167 1 1 1 .75 0 1-.167 1-1 0-.917-.25-1-1-1m-.083-7.167c-.667 0-1.334.083-1.917.25v1.417c.5-.167 1.083-.25 1.667-.25 1.083 0 1.416.166 1.416 1.083 0 .667-.166.833-.75 1.333C9.25 9.917 9 10.334 9 11.084v.583h1.417v-.333c0-.5.166-.75.916-1.334.834-.5 1.167-1.25 1.25-2.333 0-1.75-.916-2.25-2.916-2.25"/></svg>
